public/Img/website__logo.svg

<svg width="140" height="33" viewBox="0 0 140 33" fill="none" xmlns="http://www.w3.org/2000/svg">
<path d="M2.17823 5.97622V12.288C2.17823 13.3234 2.17823 14.4863 0 14.4863V16.1917V16.2146V17.8773C2.17823 17.8773 2.17823 19.0395 2.17823 20.0756V26.3868C2.17823 31.2851 4.89982 31.6408 9.52762 31.6408V27.831C7.34939 27.831 6.53333 27.5148 6.53333 26.2927V20.0435C6.53333 18.6004 6.63379 17.093 5.35638 16.1812C6.63379 15.2707 6.53333 13.7632 6.53333 12.3189V6.07089C6.53333 4.85008 7.35007 4.53256 9.52762 4.53256V0.722222C4.89982 0.721566 2.17823 1.07722 2.17823 5.97622ZM14.4247 5.77176C13.2347 6.76314 12.6401 8.18708 12.6401 10.0423V11.7088H10.1544V15.1911H12.6401V27.8106H18.0416V15.1911H21.3879V11.7088H18.0416V10.5202C18.0416 9.9154 18.2221 9.44931 18.583 9.12192C18.9439 8.79453 19.4599 8.63149 20.129 8.63149C20.4577 8.63149 22.137 8.63675 22.137 8.63675V4.59567C22.137 4.59567 19.1386 4.56346 18.7101 4.56346C17.4061 4.56346 15.6146 4.77908 14.4247 5.77176ZM24.5128 8.62229H29.915V4.59567H24.5128V8.62229ZM24.5128 27.8113H29.915V11.7088H24.5128V27.8113ZM43.2359 11.411C42.2161 11.411 41.2913 11.6372 40.463 12.0881C39.6346 12.5391 38.9389 13.1676 38.3757 13.9703L38.1686 11.7088H33.117V27.8106H38.4871V16.2337C38.7632 15.9359 39.0953 15.7013 39.4829 15.5343C39.8704 15.3673 40.3139 15.2812 40.8136 15.2812C41.6105 15.2812 42.2134 15.4724 42.6221 15.8538C43.0309 16.2364 43.2359 16.8872 43.2359 17.8109V27.812H48.6216V17.826C48.6216 15.5935 48.1459 13.9663 47.1959 12.944C46.2451 11.9218 44.9247 11.411 43.2359 11.411ZM64.9102 19.8718C63.8959 19.1033 62.3362 18.5242 60.2331 18.1376C58.8949 17.901 58.0043 17.6314 57.5642 17.3336C57.1233 17.0371 56.9026 16.6736 56.9026 16.2476C56.9026 15.8005 57.0939 15.4357 57.476 15.1471C57.8581 14.8591 58.3311 14.7145 58.8942 14.7145C59.659 14.7145 60.2141 14.8788 60.5592 15.2062C60.9043 15.5336 61.0773 16.0148 61.0773 16.6492H66.3038L66.3359 16.5605C66.4001 15.0406 65.7522 13.8053 64.3921 12.8474C63.032 11.8896 61.2043 11.4103 58.9099 11.4103C56.7317 11.4103 55.0059 11.9047 53.7306 12.8922C52.4559 13.8795 51.8189 15.0814 51.8189 16.4993C51.8189 17.8385 52.3288 18.8962 53.3486 19.6693C54.3682 20.4438 55.8822 21.0138 57.8902 21.3812C59.1649 21.6291 60.0438 21.9092 60.5271 22.2214C61.011 22.5343 61.2522 22.89 61.2522 23.2844C61.2522 23.771 61.0663 24.1469 60.6945 24.4079C60.3226 24.671 59.7759 24.8044 59.0535 24.8044C58.1827 24.8044 57.5102 24.6341 57.0379 24.2975C56.5649 23.9609 56.3182 23.41 56.297 22.6461H51.4211L51.3897 22.7348C51.3262 24.1049 51.9761 25.3454 53.3417 26.4558C54.7066 27.5674 56.5629 28.1223 58.9106 28.1223C61.1736 28.1223 62.9923 27.6535 64.3681 26.7154C65.7447 25.778 66.4322 24.5861 66.4322 23.1366C66.4322 21.729 65.9245 20.6403 64.9102 19.8718ZM84.1369 21.0401H84.0413L81.2055 11.7101H77.8107L75.0064 21.1157H74.9107L73.0147 11.7101H68.0432L72.1064 27.812H76.6488L79.4681 19.2704H79.5638L82.3688 27.812H86.9262L90.9737 11.7101H86.0022L84.1369 21.0401ZM100.118 11.4109C97.5576 11.4012 95.5886 12.1729 94.2134 13.7257C92.8362 15.2779 92.1486 17.2796 92.1486 19.7298V20.2959C92.1486 22.5376 92.9059 24.4033 94.4184 25.8917C95.9323 27.3808 97.9595 28.1243 100.499 28.1243C101.869 28.1243 103.152 27.9533 104.347 27.6108C105.542 27.269 106.517 26.8404 107.271 26.3243L105.996 23.2582C105.061 23.6263 104.288 23.8833 103.677 24.0325C103.066 24.1824 102.25 24.2568 101.231 24.2568C100.221 24.2568 99.4146 23.9912 98.809 23.4606C98.2029 22.9281 97.8426 22.2517 97.725 21.4285L97.7578 21.3385H107.605V18.7029C107.605 16.4612 106.94 14.6856 105.613 13.3753C104.287 12.0658 102.454 11.4109 100.118 11.4109ZM102.349 18.198H97.7114L97.6635 18.1244C97.749 17.2606 97.9855 16.571 98.3737 16.055C98.7606 15.5401 99.3429 15.2818 100.119 15.2818C100.883 15.2818 101.445 15.5 101.808 15.9366C102.169 16.3731 102.35 16.9984 102.35 17.8115L102.349 18.198ZM118.192 11.4109C115.631 11.4012 113.664 12.1729 112.287 13.7257C110.912 15.2779 110.223 17.2796 110.223 19.7298V20.2959C110.223 22.5376 110.98 24.4033 112.494 25.8917C114.009 27.3808 116.034 28.1243 118.573 28.1243C119.944 28.1243 121.227 27.9533 122.423 27.6108C123.618 27.269 124.592 26.8404 125.346 26.3243L124.072 23.2582C123.137 23.6263 122.365 23.8833 121.753 24.0325C121.141 24.1824 120.326 24.2568 119.306 24.2568C118.297 24.2568 117.49 23.9912 116.885 23.4606C116.278 22.9281 115.918 22.2517 115.8 21.4285L115.832 21.3385H125.68V18.7029C125.68 16.4612 125.016 14.6856 123.688 13.3753C122.36 12.0658 120.529 11.4109 118.192 11.4109ZM120.422 18.198H115.786L115.738 18.1244C115.824 17.2606 116.059 16.571 116.447 16.055C116.833 15.5401 117.416 15.2818 118.192 15.2818C118.957 15.2818 119.52 15.5 119.882 15.9366C120.245 16.3731 120.424 16.9984 120.424 17.8115V18.1987H120.422V18.198ZM136.745 23.6348C136.077 23.6348 135.56 23.4719 135.199 23.1445C134.839 22.8171 134.657 22.3496 134.657 21.7448V15.2194H137.459V11.7358H134.657V4.57003H129.256V11.7358H126.769V15.2194H129.256V22.2227C129.256 24.078 129.85 25.5019 131.04 26.4945C132.229 27.4879 134.019 27.7029 135.326 27.7029C135.755 27.7029 138.753 27.6707 138.753 27.6707V23.6296C138.753 23.6296 137.075 23.6348 136.745 23.6348Z" fill="#1E1B1B"/>
</svg>

<svg width="140" height="33" fill="none" xmlns="http://www.w3.org/2000/svg"><path d="M2.178 5.976v6.312c0 1.035 0 2.198-2.178 2.198v3.391c2.178 0 2.178 1.163 2.178 2.199v6.31c0 4.9 2.722 5.255 7.35 5.255v-3.81c-2.179 0-2.995-.316-2.995-1.538v-6.25c0-1.443.1-2.95-1.177-3.862 1.278-.91 1.177-2.418 1.177-3.862V6.07c0-1.22.817-1.538 2.995-1.538V.723c-4.628-.001-7.35.354-7.35 5.253Zm12.247-.204c-1.19.991-1.785 2.415-1.785 4.27v1.667h-2.486v3.482h2.486v12.62h5.402V15.19h3.346V11.71h-3.346V10.52c0-.605.18-1.07.541-1.398.36-.327.877-.49 1.546-.49l2.008.005V4.596s-2.998-.033-3.427-.033c-1.304 0-3.095.216-4.285 1.209Zm10.088 2.85h5.402V4.596h-5.402v4.026Zm0 19.19h5.402V11.708h-5.402V27.81ZM43.236 11.41c-1.02 0-1.945.226-2.773.677a6.083 6.083 0 0 0-2.087 1.882l-.207-2.261h-5.052V27.81h5.37V16.234c.276-.298.608-.533.996-.7a3.334 3.334 0 0 1 1.33-.253c.797 0 1.4.191 1.81.573.408.382.613 1.033.613 1.957v10.001h5.386v-9.986c0-2.232-.476-3.86-1.426-4.882-.95-1.022-2.271-1.533-3.96-1.533Zm21.674 8.46c-1.014-.768-2.574-1.347-4.677-1.733-1.338-.237-2.229-.507-2.669-.804-.44-.297-.661-.66-.661-1.086 0-.448.19-.812.573-1.1.382-.289.855-.434 1.418-.434.765 0 1.32.165 1.665.492.345.328.518.809.518 1.443h5.227l.032-.088c.064-1.52-.584-2.756-1.944-3.714-1.36-.957-3.188-1.437-5.482-1.437-2.178 0-3.904.495-5.18 1.482-1.274.988-1.911 2.19-1.911 3.607 0 1.34.51 2.397 1.53 3.17 1.02.775 2.533 1.345 4.541 1.712 1.275.248 2.154.528 2.637.84.484.313.725.669.725 1.063 0 .487-.186.863-.558 1.124-.371.263-.918.396-1.64.396-.871 0-1.544-.17-2.016-.506-.473-.337-.72-.888-.741-1.652h-4.876l-.031.089c-.064 1.37.586 2.61 1.952 3.72 1.365 1.112 3.22 1.667 5.569 1.667 2.263 0 4.081-.468 5.457-1.407 1.377-.937 2.064-2.129 2.064-3.578 0-1.408-.508-2.497-1.522-3.265Zm19.227 1.17h-.096l-2.835-9.33H77.81l-2.805 9.405h-.095l-1.896-9.406h-4.972l4.063 16.102h4.543l2.82-8.542h.095l2.805 8.542h4.557l4.048-16.102h-4.972l-1.865 9.33Zm15.981-9.63c-2.56-.01-4.53.762-5.905 2.315-1.377 1.552-2.064 3.554-2.064 6.004v.566c0 2.242.757 4.107 2.27 5.596 1.513 1.489 3.54 2.232 6.08 2.232 1.37 0 2.653-.17 3.848-.513 1.195-.342 2.17-.77 2.924-1.287l-1.275-3.066c-.935.368-1.708.625-2.319.774-.611.15-1.427.225-2.446.225-1.01 0-1.816-.266-2.422-.796-.606-.533-.966-1.21-1.084-2.032l.033-.09h9.847v-2.636c0-2.242-.665-4.017-1.992-5.328-1.326-1.31-3.159-1.964-5.495-1.964Zm2.231 6.787h-4.638l-.047-.074c.085-.863.322-1.553.71-2.069.387-.515.969-.773 1.745-.773.764 0 1.326.218 1.689.655.361.436.542 1.061.542 1.874l-.001.387Zm15.843-6.787c-2.561-.01-4.528.762-5.905 2.315-1.375 1.552-2.064 3.554-2.064 6.004v.566c0 2.242.757 4.107 2.271 5.596 1.515 1.489 3.54 2.232 6.079 2.232 1.371 0 2.654-.17 3.85-.513 1.195-.342 2.169-.77 2.923-1.287l-1.274-3.066c-.935.368-1.707.625-2.319.774-.612.15-1.427.225-2.447.225-1.009 0-1.816-.266-2.421-.796-.607-.533-.967-1.21-1.085-2.032l.032-.09h9.848v-2.636c0-2.242-.664-4.017-1.992-5.328-1.328-1.31-3.159-1.964-5.496-1.964Zm2.23 6.787h-4.636l-.048-.074c.086-.863.321-1.553.709-2.069.386-.515.969-.773 1.745-.773.765 0 1.328.218 1.69.655.363.436.542 1.061.542 1.874v.388h-.002v-.001Zm16.323 5.437c-.668 0-1.185-.163-1.546-.49-.36-.328-.542-.795-.542-1.4v-6.526h2.802v-3.483h-2.802V4.57h-5.401v7.166h-2.487v3.483h2.487v7.004c0 1.855.594 3.279 1.784 4.271 1.189.994 2.979 1.209 4.286 1.209.429 0 3.427-.032 3.427-.032V23.63l-2.008.005Z" fill="#1E1B1B"/></svg>
